!!!COM: Anonymous
!!!OTL@@POL: O Jezu jakoś ciężko skatowany
!!!TXO: Polish
!!!ODT: 
!!!GTL: Hymnbook L 1642
!!!ARL: Biblioteka Diecezjalna w Sandomierzu 
!!!voices:	4
**kern	**text	**kern	**text	**kern	**text	**kern	**text
*staff4	*staff4	*staff3	*staff3	*staff2	*staff2	*staff1	*staff1
*I"Basso	*	*I"Canto III	*	*I"Canto II	*	*I"Canto I	*
=1-	=1-	=1-	=1-	=1-	=1-	=1-	=1-
*clefF4	*	*clefG2	*	*clefG2	*	*clefG2	*
*k[b-]	*	*k[b-]	*	*k[b-]	*	*k[b-]	*
*met(c|)	*	*met(c|)	*	*met(c|)	*	*met(c|)	*
*M2/2	*	*M2/2	*	*M2/2	*	*M2/2	*
1F	O	1f	O	1a	O	1cc	O
=2	=2	=2	=2	=2	=2	=2	=2
2F\	Je-	2f/	Je-	2a/	Je-	2cc\	Je-
2F\	-zu	2f/	-zu	2a/	-zu	2cc\	-zu
=3	=3	=3	=3	=3	=3	=3	=3
1BB-	ja-	1f	ja-	1b-	ja-	1dd	ja-
=4	=4	=4	=4	=4	=4	=4	=4
2FF/	-koś	2f/	-koś	2a/	-koś	2cc\	-koś
[2FF/	cię-	[2f/	cię-	[2a/	cię-	[2cc\	cię-
=5	=5	=5	=5	=5	=5	=5	=5
2FF/]	.	2f/]	.	2a/]	.	2cc\]	.
2GG/	-żko	4e/	-żko	2g/	-żko	2b-\	-żko
.	.	4d/	.	.	.	.	.
=6	=6	=6	=6	=6	=6	=6	=6
2AA/	ska-	2c/	ska-	2e/	ska-	2a/	ska-
2BB-/	-to-	[2d/	-to-	2d/	-to-	2g/	-to-
=7	=7	=7	=7	=7	=7	=7	=7
1AA	-wa-	2d/]	.	1e	-wa-	1a	-wa-
.	.	2c#i/	-wa-	.	.	.	.
=8	=8	=8	=8	=8	=8	=8	=8
1D	-ny	1d	-ny	1f	-ny	1a	-ny
=9	=9	=9	=9	=9	=9	=9	=9
2r	.	2r	.	2r	.	2r	.
[2D\	Ja-	[2f/	Ja-	[2a/	Ja-	[2dd\	Ja-
=10	=10	=10	=10	=10	=10	=10	=10
4D\]	.	4f/]	.	4a/]	.	4dd\]	.
4D\	-koś	4f/	-koś	4a/	-koś	4dd\	-koś
2D\	ha-	2f/	ha-	2a/	ha-	2dd\	ha-
=11	=11	=11	=11	=11	=11	=11	=11
2GG/	-nie-	2g/	-nie-	2b-\	-nie-	2dd\	-nie-
2GG/	-bnie	2f/	-bnie	2b-\	-bnie	2dd\	-bnie
=12	=12	=12	=12	=12	=12	=12	=12
1C	jest	1e	jest	1g	jest	[1cc	jest
=13	=13	=13	=13	=13	=13	=13	=13
4FF/	za-	1f	za-	1a	za-	2cc\]	.
4GG/	.	.	.	.	.	.	.
4AA/	.	.	.	.	.	2cc\	za-
4BB-/	.	.	.	.	.	.	.
=14	=14	=14	=14	=14	=14	=14	=14
2C/	-mor-	2e/	-mor-	2g/	-mor-	2cc\	-mor-
2D\	-do-	[2f/	-do-	2f/	-do-	2b-\	-do-
=15	=15	=15	=15	=15	=15	=15	=15
1C	-wa-	2f/]	-wa-	1g	-wa-	1cc	-wa-
.	.	2e/	.	.	.	.	.
=16	=16	=16	=16	=16	=16	=16	=16
1FF	-ny	1f	-ny	1a	-ny	1cc	-ny
=17	=17	=17	=17	=17	=17	=17	=17
2r	.	2r	.	2r	.	2r	.
[2F\	O	[2a/	O	[2cc\	O	[2ff\	O
=18	=18	=18	=18	=18	=18	=18	=18
2F\]	.	2a/]	.	2cc\]	.	2ff\]	.
[2C/	a-	[2g/	a-	[2cc\	a-	[2ee\	a-
=19	=19	=19	=19	=19	=19	=19	=19
2C/]	.	2g/]	.	2cc\]	.	2ee\]	.
2AA/	-niel-	4a/	-niel-	2cc\	-niel-	2ff\	-niel-
.	.	4g/	.	.	.	.	.
=20	=20	=20	=20	=20	=20	=20	=20
2BB-/	-skie	2f/	-skie	2b-\	-skie	2dd\	-skie
2GG/	ko-	2f/	ko-	2b-\	ko-	2dd\	ko-
=21	=21	=21	=21	=21	=21	=21	=21
1AA	-cha-	1e	-cha-	1a	-cha-	1cc#	-cha-
=22	=22	=22	=22	=22	=22	=22	=22
1AA	-nie	1e	-nie	1a	-nie	1cc#i	-nie
=23	=23	=23	=23	=23	=23	=23	=23
2r	.	2r	.	2r	.	2r	.
2AA/	Od-	2e/	Od-	2a/	Od-	2cc#i\	Od-
=24	=24	=24	=24	=24	=24	=24	=24
2D\	-mie-	2f/	-mie-	2a/	-mie-	2dd\	-mie-
2C/	-ni-	2g/	-ni-	2cc\	-ni-	2ee\	-ni-
=25	=25	=25	=25	=25	=25	=25	=25
2.F\	-łoć	2.a/	-łoć	2.cc\	-łoć	2.ff\	-łoć
4F\	się	4a/	się	4cc\	się	4ee\	się
=26	=26	=26	=26	=26	=26	=26	=26
2FF/	w~ser-	2a/	w~ser-	2cc\	w~ser-	2ff\	w~ser-
2GG/	-de-	4g/	-de-	2b-\	-de-	2dd\	-de-
.	.	4f/	.	.	.	.	.
=27	=27	=27	=27	=27	=27	=27	=27
2AA/	-czne	2e/	-czne	2a/	-czne	2cc#\	-czne
2BB-/	wzdy-	2d/	wzdy-	2g/	wzdy-	[2dd\	wzdy-
=28	=28	=28	=28	=28	=28	=28	=28
1AA	-cha-	1e	-cha-	1a	-cha-	2dd\]	.
.	.	.	.	.	.	2cc#i\	-cha-
=29	=29	=29	=29	=29	=29	=29	=29
1D	-nie	1f#i	-nie	1a	-nie	1dd	-nie
=30	=30	=30	=30	=30	=30	=30	=30
2r	.	2r	.	2r	.	2r	.
2D\	od-	2d/	od-	2f#/	od-	2a/	od-
=31	=31	=31	=31	=31	=31	=31	=31
2GG/	-mie-	2d/	-mie-	2g/	-mie-	2b-\	-mie-
2FF/	-ni-	2f/	-ni-	2a/	-ni-	2cc\	-ni-
=32	=32	=32	=32	=32	=32	=32	=32
2.BB-/	-łoć	2.f/	-łoć	2.b-\	-łoć	2.dd\	-łoć
4BB-/	się	4f/	się	4b-\	się	4dd\	się
=33	=33	=33	=33	=33	=33	=33	=33
2BB-/	w~ser-	2f/	w~ser-	2b-\	w~ser-	2dd\	w~ser-
2FF/	-de-	2f/	-de-	2a/	-de-	2cc\	-de-
=34	=34	=34	=34	=34	=34	=34	=34
2GG/	-czne	2d/	-czne	2g/	-czne	2b-\	-czne
2GG/	wzdy-	4c/	wzdy-	2f/	wzdy-	2b-\	wzdy-
.	.	4B-/	.	.	.	.	.
=35	=35	=35	=35	=35	=35	=35	=35
1AA	-cha-	1c#i	-cha-	1e	-cha-	1a	-cha-
=36	=36	=36	=36	=36	=36	=36	=36
1D	-nie.	1d	-nie.	1f#i	-nie.	1a	-nie.
==	==	==	==	==	==	==	==
*-	*-	*-	*-	*-	*-	*-	*-
!!!GTL: Hymnbook L 1642
!!!EFL: 1/39
!!!YEM: Creative Commons CC/BY/NC/SA 4.0
!!!ENC: Marcin Konik
!!!END: 2015-02-12 
!!!EED: Marcin Konik
!!!EEV: 
!!!ONB: Translated from MusicXML and edited by Marcin Konik
!!!CharacterEncoding: utf-8
!!!RDF**kern: i=editorial accidental
!!muse2ps: z14jc180F
!!title: @{OTL}, @{GTL}: @{pag}, ed. @{ENC}
